components/Common/Svg/svgs/goodFirms.svg

<svg
  width="202"
  height="85"
  viewBox="0 0 202 85"
  fill="none"
  xmlns="http://www.w3.org/2000/svg"
>
  <g clip-path="url(#clip0)">
    <path
      d="M12.3329 10.55C12.3329 10.55 10.6671 10.3843 10.6671 11.8686V18.4614H21.6671V20.44C21.6671 20.44 21.7 21.4286 20.6671 21.4286H10.6671V30H22.6671C22.6671 30 29.9329 28.8786 30 21.4286V10.55H12.3329ZM29.6657 0H8C0.165714 1.84571 0 8.27429 0 8.27429V30H8.33429V10.22C8.33429 8.53857 10 8.24286 10 8.24286H29.6671V0H29.6657ZM58.2686 23.7829C57.6971 24.1643 57.2743 24.4443 56.9757 24.6229C55.9071 25.2843 54.8886 25.7943 53.9443 26.2014C52.5771 26.7614 51.3586 27.0414 50.2657 27.0414C46.5129 27.0414 43.4057 25.8957 40.8943 23.5786C38.3829 21.2614 37.1429 18.36 37.1429 14.8471C37.1429 11.4614 38.2614 8.53286 40.5229 6.03714C42.7843 3.54286 45.5186 2.32 48.75 2.32C50.0929 2.32 51.5329 2.54857 53.0243 3.03429C54.9629 3.64429 56.5286 4.56143 57.7714 5.75714L55.6086 8.15C54.69 7.26 53.4971 6.59714 52.1043 6.19C51.0614 5.88429 49.9186 5.73286 48.65 5.73286C46.3886 5.73286 44.4743 6.64714 42.9586 8.45571C41.4429 10.2886 40.6729 12.4529 40.6729 14.9986C40.6729 17.52 41.5414 19.5814 43.2814 21.2371C45.0214 22.8914 47.2329 23.7314 49.9171 23.7314C51.0357 23.7314 52.18 23.3743 53.3471 22.6886C54.3171 21.95 54.8143 21.5929 54.8386 21.5671V16.3486H47.5814L48.6243 13.09H58.2686V23.7829ZM80.19 17.4171C80.19 19.9371 79.2957 22.1271 77.5057 23.96C75.7157 25.7929 73.5043 26.7357 70.87 26.7357C68.4343 26.7357 66.2971 25.8186 64.4571 24.0114C62.6171 22.2043 61.7229 20.0143 61.7229 17.4429C61.7229 14.8971 62.5943 12.7071 64.3329 10.8229C66.0714 8.93857 68.21 8.02286 70.72 8.02286C73.5043 8.02286 75.7657 8.91429 77.53 10.7214C79.2957 12.4786 80.19 14.7186 80.19 17.4171ZM76.7843 17.4686C76.7843 15.7629 76.2129 14.3114 75.07 13.14C73.9271 11.9429 72.51 11.3571 70.82 11.3571C69.23 11.3571 67.8871 11.9686 66.7686 13.1914C65.65 14.4129 65.1029 15.8129 65.1029 17.3914C65.1029 19.0471 65.6743 20.4471 66.7929 21.6186C67.9114 22.79 69.3043 23.4 70.9929 23.4C72.56 23.4 73.9014 22.8143 75.0457 21.6429C76.2129 20.4714 76.7857 19.0714 76.7857 17.4686H76.7843ZM101.813 17.4171C101.813 19.9371 100.919 22.1271 99.1286 23.96C97.3386 25.7929 95.1271 26.7357 92.4929 26.7357C90.0571 26.7357 87.92 25.8186 86.08 24.0114C84.2414 22.2043 83.3457 20.0143 83.3457 17.4429C83.3457 14.8971 84.2171 12.7071 85.9557 10.8229C87.6957 8.93857 89.8328 8.02286 92.3428 8.02286C95.1271 8.02286 97.3886 8.91429 99.1528 10.7214C100.919 12.4786 101.813 14.7186 101.813 17.4171ZM98.4071 17.4686C98.4071 15.7629 97.8357 14.3114 96.6928 13.14C95.55 11.9429 94.1329 11.3571 92.4428 11.3571C90.8529 11.3571 89.51 11.9686 88.3914 13.1914C87.2729 14.4129 86.7257 15.8129 86.7257 17.3914C86.7257 19.0471 87.2971 20.4471 88.4171 21.6186C89.5343 22.79 90.9271 23.4 92.6171 23.4C94.1829 23.4 95.5243 22.8143 96.6686 21.6429C97.8357 20.4714 98.4086 19.0714 98.4086 17.4686H98.4071ZM121.821 26.2257L118.69 26.71V23.68L118.019 24.4429C117.427 24.9969 116.757 25.4605 116.03 25.8186C114.963 26.3108 113.801 26.5629 112.626 26.5571C110.19 26.5571 108.101 25.6657 106.411 23.8571C104.721 22.0486 103.877 19.9114 103.877 17.4171C103.877 14.8457 104.721 12.6314 106.387 10.7971C108.053 8.96286 110.09 8.04714 112.526 8.04714C113.919 8.04714 115.136 8.27571 116.154 8.73429C116.876 9.06571 117.497 9.49857 118.019 10.0343C118.193 10.2629 118.367 10.5171 118.541 10.7457V2.80286L121.87 2.31857L121.821 26.2257ZM118.889 17.6457C118.889 15.8643 118.291 14.3614 117.074 13.14C115.857 11.8914 114.489 11.2814 112.924 11.2814C111.184 11.2814 109.793 11.8671 108.724 13.0386C107.729 14.1571 107.207 15.5329 107.207 17.1371C107.207 18.9443 107.729 20.4457 108.773 21.6171C109.816 22.7886 111.134 23.3743 112.75 23.3743C114.34 23.3743 115.733 22.84 116.976 21.7457C118.243 20.6243 118.89 19.25 118.89 17.6457H118.889ZM139.393 6.11429H130.073V12.4529H137.304V15.7114H130.073V26.2014L126.444 26.7357V2.82857H138.671L139.393 6.11429ZM146.874 4.25429L144.637 7.08L142.5 4.25429L144.761 1.45429L146.874 4.25429ZM146.203 26.2257L142.873 26.6843V8.99L146.203 8.48143V26.2271V26.2257ZM161.24 8.30286L159.674 11.9171C159.469 11.8858 159.261 11.8691 159.053 11.8671C158.73 11.8671 158.407 11.8929 158.083 11.9429C157.759 11.9929 157.411 12.1214 157.04 12.3C156.344 12.6057 155.747 13.2671 155.226 14.26C154.649 15.3868 154.35 16.6355 154.354 17.9014V26.2014L151.026 26.7357V8.99L154.107 8.43V12.1214C154.504 11.4843 154.927 10.8486 155.324 10.1871C155.896 9.52429 156.567 9.04143 157.313 8.76C157.71 8.60857 158.431 8.48 159.524 8.37857C160.569 8.30286 161.166 8.25143 161.24 8.30286ZM186.043 26.2257L182.713 26.71V14.5657C182.713 13.4443 182.464 12.63 181.967 12.1214C181.47 11.6114 180.724 11.3571 179.754 11.3571C178.587 11.3571 177.691 11.8414 177.096 12.8086C176.697 13.47 176.474 14.1829 176.474 14.8957V26.2L173.144 26.8114V14.6414C173.144 13.5729 172.896 12.7571 172.423 12.1986C171.926 11.6371 171.28 11.3571 170.434 11.3571H170.111C168.943 11.3571 168.097 11.8414 167.576 12.8343C167.179 13.5729 166.98 14.5143 166.98 15.66V26.2L163.526 26.8114V8.99L166.631 8.45571V10.7214C166.98 10.1857 167.327 9.75286 167.651 9.44857C168.546 8.60857 169.59 8.2 170.757 8.2C172.074 8.2 173.043 8.40429 173.714 8.83714C174.286 9.19429 174.833 9.90571 175.38 10.9243C176.523 9.11714 178.139 8.2 180.277 8.2C182.314 8.2 183.831 8.83714 184.824 10.1357C185.646 11.2043 186.043 12.7829 186.043 14.8457V26.2257ZM201.257 20.8543C201.257 22.4829 200.686 23.8329 199.543 24.8771C198.4 25.9457 196.957 26.4557 195.217 26.4557C193.9 26.4557 192.731 26.15 191.663 25.5386C190.594 24.9286 189.8 24.24 189.277 23.4257L191.614 21.3386C191.787 21.5929 191.937 21.7957 192.086 21.9486C192.957 22.84 194 23.2986 195.217 23.2986C196.063 23.2986 196.734 23.07 197.206 22.6371C197.703 22.2043 197.927 21.5929 197.927 20.8029C197.927 19.9129 197.356 19.3014 196.213 18.97C193.95 18.2829 192.731 17.9014 192.559 17.8243C191.514 17.29 190.769 16.73 190.296 16.0929C189.774 15.3543 189.501 14.3871 189.501 13.14C189.501 11.6114 190.073 10.34 191.191 9.32143C192.31 8.30286 193.651 7.81857 195.191 7.81857C196.361 7.81857 197.454 8.07286 198.449 8.60857C199.443 9.14286 200.163 9.70286 200.586 10.3657L198.597 12.5286C198.298 12.2296 197.974 11.9572 197.629 11.7143C196.833 11.1543 196.063 10.8743 195.343 10.8743C194.646 10.8743 194.074 11.0271 193.627 11.3314C193.104 11.7143 192.831 12.2743 192.831 13.0129C192.831 13.7257 193.08 14.26 193.603 14.5914C194.05 14.8714 194.994 15.1771 196.486 15.5071C197.976 15.8643 199.12 16.4757 199.94 17.3414C200.86 18.2571 201.257 19.4029 201.257 20.8543Z"
      fill="#3A7AF3"
    ></path>
  </g>
  <path
    d="M30.9308 78.6262L35.8561 81.7467C36.4857 82.1456 37.2674 81.5524 37.0805 80.8174L35.6575 75.2196C35.6174 75.0636 35.6222 74.8996 35.6712 74.7462C35.7202 74.5929 35.8115 74.4565 35.9346 74.3528L40.3513 70.6767C40.9317 70.1936 40.6321 69.2305 39.8865 69.1821L34.1186 68.8078C33.9632 68.7967 33.8142 68.7416 33.6889 68.6491C33.5636 68.5566 33.4671 68.4304 33.4108 68.2852L31.2596 62.8679C31.2011 62.7138 31.0971 62.5811 30.9614 62.4875C30.8258 62.3939 30.6648 62.3438 30.5 62.3438C30.3352 62.3438 30.1742 62.3939 30.0386 62.4875C29.9029 62.5811 29.7989 62.7138 29.7404 62.8679L27.5892 68.2852C27.5329 68.4304 27.4364 68.5566 27.3111 68.6491C27.1858 68.7416 27.0368 68.7967 26.8814 68.8078L21.1135 69.1821C20.3679 69.2305 20.0683 70.1936 20.6487 70.6767L25.0654 74.3528C25.1885 74.4565 25.2798 74.5929 25.3288 74.7462C25.3778 74.8996 25.3826 75.0636 25.3425 75.2196L24.0228 80.411C23.7986 81.2929 24.7366 82.0048 25.4921 81.5261L30.0692 78.6262C30.198 78.5443 30.3474 78.5008 30.5 78.5008C30.6526 78.5008 30.802 78.5443 30.9308 78.6262Z"
    fill="#161616"
  ></path>
  <path
    d="M65.9308 78.6262L70.8561 81.7467C71.4857 82.1456 72.2674 81.5524 72.0805 80.8174L70.6575 75.2196C70.6174 75.0636 70.6222 74.8996 70.6712 74.7462C70.7202 74.5929 70.8115 74.4565 70.9346 74.3528L75.3513 70.6767C75.9317 70.1936 75.6321 69.2305 74.8865 69.1821L69.1186 68.8078C68.9632 68.7967 68.8142 68.7416 68.6889 68.6491C68.5636 68.5566 68.4671 68.4304 68.4108 68.2852L66.2596 62.8679C66.2011 62.7138 66.0971 62.5811 65.9614 62.4875C65.8258 62.3939 65.6648 62.3438 65.5 62.3438C65.3352 62.3438 65.1742 62.3939 65.0386 62.4875C64.9029 62.5811 64.7989 62.7138 64.7404 62.8679L62.5892 68.2852C62.5329 68.4304 62.4364 68.5566 62.3111 68.6491C62.1858 68.7416 62.0368 68.7967 61.8814 68.8078L56.1135 69.1821C55.3679 69.2305 55.0683 70.1936 55.6487 70.6767L60.0654 74.3528C60.1885 74.4565 60.2798 74.5929 60.3288 74.7462C60.3778 74.8996 60.3826 75.0636 60.3425 75.2196L59.0228 80.411C58.7986 81.2929 59.7366 82.0048 60.4921 81.5261L65.0692 78.6262C65.198 78.5443 65.3474 78.5008 65.5 78.5008C65.6526 78.5008 65.802 78.5443 65.9308 78.6262Z"
    fill="#161616"
  ></path>
  <path
    d="M100.931 78.6262L105.856 81.7467C106.486 82.1456 107.267 81.5524 107.081 80.8174L105.658 75.2196C105.617 75.0636 105.622 74.8996 105.671 74.7462C105.72 74.5929 105.812 74.4565 105.935 74.3528L110.351 70.6767C110.932 70.1936 110.632 69.2305 109.887 69.1821L104.119 68.8078C103.963 68.7967 103.814 68.7416 103.689 68.6491C103.564 68.5566 103.467 68.4304 103.411 68.2852L101.26 62.8679C101.201 62.7138 101.097 62.5811 100.961 62.4875C100.826 62.3939 100.665 62.3438 100.5 62.3438C100.335 62.3438 100.174 62.3939 100.039 62.4875C99.9029 62.5811 99.7989 62.7138 99.7404 62.8679L97.5892 68.2852C97.5329 68.4304 97.4364 68.5566 97.3111 68.6491C97.1858 68.7416 97.0368 68.7967 96.8814 68.8078L91.1135 69.1821C90.3679 69.2305 90.0683 70.1936 90.6487 70.6767L95.0654 74.3528C95.1885 74.4565 95.2798 74.5929 95.3288 74.7462C95.3778 74.8996 95.3826 75.0636 95.3425 75.2196L94.0228 80.411C93.7986 81.2929 94.7366 82.0048 95.4921 81.5261L100.069 78.6262C100.198 78.5443 100.347 78.5008 100.5 78.5008C100.653 78.5008 100.802 78.5443 100.931 78.6262Z"
    fill="#161616"
  ></path>
  <path
    d="M135.931 78.6262L140.856 81.7467C141.486 82.1456 142.267 81.5524 142.081 80.8174L140.658 75.2196C140.617 75.0636 140.622 74.8996 140.671 74.7462C140.72 74.5929 140.812 74.4565 140.935 74.3528L145.351 70.6767C145.932 70.1936 145.632 69.2305 144.887 69.1821L139.119 68.8078C138.963 68.7967 138.814 68.7416 138.689 68.6491C138.564 68.5566 138.467 68.4304 138.411 68.2852L136.26 62.8679C136.201 62.7138 136.097 62.5811 135.961 62.4875C135.826 62.3939 135.665 62.3438 135.5 62.3438C135.335 62.3438 135.174 62.3939 135.039 62.4875C134.903 62.5811 134.799 62.7138 134.74 62.8679L132.589 68.2852C132.533 68.4304 132.436 68.5566 132.311 68.6491C132.186 68.7416 132.037 68.7967 131.881 68.8078L126.113 69.1821C125.368 69.2305 125.068 70.1936 125.649 70.6767L130.065 74.3528C130.188 74.4565 130.28 74.5929 130.329 74.7462C130.378 74.8996 130.383 75.0636 130.343 75.2196L129.023 80.411C128.799 81.2929 129.737 82.0048 130.492 81.5261L135.069 78.6262C135.198 78.5443 135.347 78.5008 135.5 78.5008C135.653 78.5008 135.802 78.5443 135.931 78.6262Z"
    fill="#161616"
  ></path>
  <path
    d="M170.931 78.6262L175.856 81.7467C176.486 82.1456 177.267 81.5524 177.081 80.8174L175.658 75.2196C175.617 75.0636 175.622 74.8996 175.671 74.7462C175.72 74.5929 175.812 74.4565 175.935 74.3528L180.351 70.6767C180.932 70.1936 180.632 69.2305 179.887 69.1821L174.119 68.8078C173.963 68.7967 173.814 68.7416 173.689 68.6491C173.564 68.5566 173.467 68.4304 173.411 68.2852L171.26 62.8679C171.201 62.7138 171.097 62.5811 170.961 62.4875C170.826 62.3939 170.665 62.3438 170.5 62.3438C170.335 62.3438 170.174 62.3939 170.039 62.4875C169.903 62.5811 169.799 62.7138 169.74 62.8679L167.589 68.2852C167.533 68.4304 167.436 68.5566 167.311 68.6491C167.186 68.7416 167.037 68.7967 166.881 68.8078L161.113 69.1821C160.368 69.2305 160.068 70.1936 160.649 70.6767L165.065 74.3528C165.188 74.4565 165.28 74.5929 165.329 74.7462C165.378 74.8996 165.383 75.0636 165.343 75.2196L164.023 80.411C163.799 81.2929 164.737 82.0048 165.492 81.5261L170.069 78.6262C170.198 78.5443 170.347 78.5008 170.5 78.5008C170.653 78.5008 170.802 78.5443 170.931 78.6262Z"
    fill="#161616"
  ></path>
  <defs>
    <clipPath id="clip0">
      <rect width="201.429" height="30" fill="white"></rect>
    </clipPath>
  </defs>
</svg>

<svg width="202" height="85" viewBox="0 0 202 85" fill="none" xmlns="http://www.w3.org/2000/svg"><g clip-path="url(#a)"><path d="M12.333 10.55s-1.666-.166-1.666 1.319v6.592h11v1.979s.033.989-1 .989h-10V30h12s7.266-1.121 7.333-8.571V10.55H12.333ZM29.666 0H8C.166 1.846 0 8.274 0 8.274V30h8.334V10.22C8.334 8.539 10 8.243 10 8.243h19.667V0h-.001Zm28.603 23.783c-.572.381-.995.661-1.293.84a23.13 23.13 0 0 1-3.032 1.578c-1.367.56-2.585.84-3.678.84-3.753 0-6.86-1.145-9.372-3.462-2.511-2.318-3.751-5.219-3.751-8.732 0-3.386 1.118-6.314 3.38-8.81 2.261-2.494 4.996-3.717 8.227-3.717 1.343 0 2.783.229 4.274.714 1.939.61 3.505 1.527 4.747 2.723L55.61 8.15c-.919-.89-2.112-1.553-3.505-1.96-1.043-.306-2.185-.457-3.454-.457-2.261 0-4.176.914-5.691 2.723-1.516 1.833-2.286 3.997-2.286 6.543 0 2.521.868 4.582 2.608 6.238 1.74 1.654 3.952 2.494 6.636 2.494 1.119 0 2.263-.357 3.43-1.042.97-.739 1.467-1.096 1.492-1.122V16.35H47.58l1.043-3.259h9.645v10.693Zm21.921-6.366c0 2.52-.894 4.71-2.684 6.543-1.79 1.833-4.002 2.776-6.636 2.776-2.436 0-4.573-.917-6.413-2.725-1.84-1.807-2.734-3.997-2.734-6.568 0-2.546.871-4.736 2.61-6.62 1.738-1.884 3.877-2.8 6.387-2.8 2.784 0 5.046.891 6.81 2.698 1.766 1.758 2.66 3.998 2.66 6.696Zm-3.406.052c0-1.706-.571-3.158-1.714-4.329-1.143-1.197-2.56-1.783-4.25-1.783-1.59 0-2.933.612-4.051 1.834-1.119 1.222-1.666 2.622-1.666 4.2 0 1.656.571 3.056 1.69 4.228 1.118 1.171 2.511 1.781 4.2 1.781 1.567 0 2.908-.586 4.053-1.757 1.167-1.172 1.74-2.572 1.74-4.174h-.002Zm25.029-.052c0 2.52-.894 4.71-2.684 6.543-1.79 1.833-4.002 2.776-6.636 2.776-2.436 0-4.573-.917-6.413-2.725-1.839-1.807-2.734-3.997-2.734-6.568 0-2.546.871-4.736 2.61-6.62 1.74-1.884 3.877-2.8 6.387-2.8 2.784 0 5.046.891 6.81 2.698 1.766 1.758 2.66 3.998 2.66 6.696Zm-3.406.052c0-1.706-.571-3.158-1.714-4.329-1.143-1.197-2.56-1.783-4.25-1.783-1.59 0-2.933.612-4.052 1.834-1.118 1.222-1.665 2.622-1.665 4.2 0 1.656.571 3.056 1.691 4.228 1.117 1.171 2.51 1.781 4.2 1.781 1.566 0 2.907-.586 4.052-1.757 1.167-1.172 1.74-2.572 1.74-4.174h-.002Zm23.414 8.757-3.131.484v-3.03l-.671.763a8.24 8.24 0 0 1-1.989 1.376 8.032 8.032 0 0 1-3.404.738c-2.436 0-4.525-.891-6.215-2.7-1.69-1.808-2.534-3.946-2.534-6.44 0-2.571.844-4.786 2.51-6.62 1.666-1.834 3.703-2.75 6.139-2.75 1.393 0 2.61.229 3.628.687a6.161 6.161 0 0 1 1.865 1.3c.174.229.348.483.522.712V2.803l3.329-.484-.049 23.907Zm-2.932-8.58c0-1.782-.598-3.285-1.815-4.506-1.217-1.249-2.585-1.859-4.15-1.859-1.74 0-3.131.586-4.2 1.758-.995 1.118-1.517 2.494-1.517 4.098 0 1.807.522 3.309 1.566 4.48 1.043 1.172 2.361 1.757 3.977 1.757 1.59 0 2.983-.534 4.226-1.628 1.267-1.122 1.914-2.496 1.914-4.1h-.001Zm20.504-11.532h-9.32v6.339h7.231v3.258h-7.231v10.49l-3.629.535V2.829h12.227l.722 3.285Zm7.481-1.86-2.237 2.826-2.137-2.826 2.261-2.8 2.113 2.8Zm-.671 21.972-3.33.458V8.99l3.33-.509v17.746-.001ZM161.24 8.303l-1.566 3.614a4.4 4.4 0 0 0-.621-.05 6.35 6.35 0 0 0-.97.076c-.324.05-.672.178-1.043.357-.696.306-1.293.967-1.814 1.96a7.935 7.935 0 0 0-.872 3.641v8.3l-3.328.535V8.99l3.081-.56v3.691c.397-.637.82-1.272 1.217-1.934.572-.663 1.243-1.146 1.989-1.427.397-.151 1.118-.28 2.211-.381 1.045-.076 1.642-.128 1.716-.076Zm24.803 17.923-3.33.484V14.566c0-1.122-.249-1.936-.746-2.445-.497-.51-1.243-.764-2.213-.764-1.167 0-2.063.484-2.658 1.452-.399.661-.622 1.374-.622 2.087V26.2l-3.33.611v-12.17c0-1.068-.248-1.884-.721-2.442-.497-.562-1.143-.842-1.989-.842h-.323c-1.168 0-2.014.484-2.535 1.477-.397.739-.596 1.68-.596 2.826V26.2l-3.454.611V8.99l3.105-.534v2.265c.349-.535.696-.968 1.02-1.272.895-.84 1.939-1.249 3.106-1.249 1.317 0 2.286.204 2.957.637.572.357 1.119 1.069 1.666 2.087 1.143-1.807 2.759-2.724 4.897-2.724 2.037 0 3.554.637 4.547 1.936.822 1.068 1.219 2.647 1.219 4.71v11.38Zm15.214-5.372c0 1.629-.571 2.979-1.714 4.023-1.143 1.069-2.586 1.579-4.326 1.579-1.317 0-2.486-.306-3.554-.917-1.069-.61-1.863-1.299-2.386-2.113l2.337-2.087c.173.254.323.457.472.61.871.891 1.914 1.35 3.131 1.35.846 0 1.517-.229 1.989-.662.497-.433.721-1.044.721-1.834 0-.89-.571-1.502-1.714-1.833-2.263-.687-3.482-1.069-3.654-1.146-1.045-.534-1.79-1.094-2.263-1.731-.522-.739-.795-1.706-.795-2.953 0-1.529.572-2.8 1.69-3.819 1.119-1.018 2.46-1.502 4-1.502 1.17 0 2.263.254 3.258.79.994.534 1.714 1.094 2.137 1.757l-1.989 2.163a7.366 7.366 0 0 0-.968-.815c-.796-.56-1.566-.84-2.286-.84-.697 0-1.269.153-1.716.457-.523.383-.796.943-.796 1.682 0 .713.249 1.247.772 1.578.447.28 1.391.586 2.883.916 1.49.357 2.634.969 3.454 1.834.92.916 1.317 2.062 1.317 3.513Z" fill="#3A7AF3"/></g><path d="m30.93 78.626 4.926 3.12c.63.4 1.411-.194 1.224-.929l-1.422-5.597a.855.855 0 0 1 .277-.867l4.416-3.676c.58-.483.281-1.447-.465-1.495l-5.767-.374a.822.822 0 0 1-.708-.523l-2.151-5.417a.812.812 0 0 0-1.52 0l-2.15 5.417a.822.822 0 0 1-.709.523l-5.768.374c-.745.049-1.045 1.012-.464 1.495l4.416 3.676a.855.855 0 0 1 .277.867l-1.32 5.191c-.223.882.715 1.594 1.47 1.115l4.577-2.9a.803.803 0 0 1 .862 0ZM65.93 78.626l4.926 3.12c.63.4 1.411-.194 1.225-.929l-1.424-5.597a.855.855 0 0 1 .278-.867l4.416-3.676c.58-.483.281-1.447-.465-1.495l-5.767-.374a.822.822 0 0 1-.708-.523l-2.151-5.417a.812.812 0 0 0-1.52 0l-2.15 5.417a.822.822 0 0 1-.709.523l-5.767.374c-.746.049-1.046 1.012-.465 1.495l4.416 3.676a.855.855 0 0 1 .278.867l-1.32 5.191c-.224.882.714 1.594 1.47 1.115l4.576-2.9a.803.803 0 0 1 .862 0ZM100.931 78.626l4.925 3.12c.63.4 1.411-.194 1.225-.929l-1.423-5.597a.847.847 0 0 1 .277-.867l4.416-3.676c.581-.483.281-1.447-.464-1.495l-5.768-.374a.82.82 0 0 1-.708-.523l-2.151-5.417a.815.815 0 0 0-1.221-.38.81.81 0 0 0-.299.38l-2.15 5.417a.822.822 0 0 1-.709.523l-5.767.374c-.746.049-1.046 1.012-.465 1.495l4.416 3.676a.855.855 0 0 1 .278.867l-1.32 5.191c-.224.882.714 1.594 1.47 1.115l4.576-2.9a.803.803 0 0 1 .862 0ZM135.931 78.626l4.925 3.12c.63.4 1.411-.194 1.225-.929l-1.423-5.597a.847.847 0 0 1 .277-.867l4.416-3.676c.581-.483.281-1.447-.464-1.495l-5.768-.374a.82.82 0 0 1-.708-.523l-2.151-5.417a.815.815 0 0 0-1.221-.38.815.815 0 0 0-.299.38l-2.151 5.417a.821.821 0 0 1-.708.523l-5.768.374c-.745.049-1.045 1.012-.464 1.495l4.416 3.676a.857.857 0 0 1 .278.867l-1.32 5.191c-.224.882.714 1.594 1.469 1.115l4.577-2.9a.803.803 0 0 1 .862 0ZM170.931 78.626l4.925 3.12c.63.4 1.411-.194 1.225-.929l-1.423-5.597a.847.847 0 0 1 .277-.867l4.416-3.676c.581-.483.281-1.447-.464-1.495l-5.768-.374a.82.82 0 0 1-.708-.523l-2.151-5.417a.815.815 0 0 0-1.221-.38.815.815 0 0 0-.299.38l-2.151 5.417a.821.821 0 0 1-.708.523l-5.768.374c-.745.049-1.045 1.012-.464 1.495l4.416 3.676a.857.857 0 0 1 .278.867l-1.32 5.191c-.224.882.714 1.594 1.469 1.115l4.577-2.9a.803.803 0 0 1 .862 0Z" fill="#161616"/><defs><clipPath id="a"><path fill="#fff" d="M0 0h201.429v30H0z"/></clipPath></defs></svg>
